public/images/logo_white.svg

<svg width="173" height="28" viewBox="0 0 173 28" fill="none" xmlns="http://www.w3.org/2000/svg">
<path d="M13.159 0.00019456C13.091 0.00372176 13.0246 0.0210236 12.9642 0.0522393C12.9642 0.0522393 7.37545 2.81639 0.406262 3.73778C0.172116 3.76988 -0.00172373 3.96913 1.28967e-05 4.20349V13.9989C1.28967e-05 19.9996 3.31325 23.5591 6.57997 25.5386C9.84667 27.5181 13.1066 27.9947 13.1066 27.9947C13.1529 28.0018 13.2 28.0018 13.2463 27.9947C13.2463 27.9947 16.5063 27.5181 19.773 25.5386C23.0397 23.5591 26.3529 19.9996 26.3529 13.9989V4.20349C26.3549 3.96913 26.1808 3.76984 25.9467 3.73778C18.9775 2.81639 13.3888 0.0522393 13.3888 0.0522393C13.3179 0.0159091 13.2388 -0.00209812 13.159 0.00019456ZM13.1764 5.60149C17.849 5.60149 21.6452 9.36558 21.6452 13.9988C21.6452 18.632 17.849 22.4007 13.1764 22.4007C8.50384 22.4007 4.7077 18.632 4.7077 13.9988C4.7077 9.36558 8.50384 5.60149 13.1764 5.60149ZM11.2932 9.80016V12.136H8.94206C8.68217 12.135 8.47068 12.3431 8.46964 12.6008V15.4014C8.47058 15.6591 8.68217 15.8672 8.94206 15.8662H11.2932V18.202C11.2941 18.4601 11.5063 18.6683 11.7665 18.6668H14.5864C14.8462 18.6677 15.0577 18.4597 15.0588 18.202V15.8662H17.4108C17.6707 15.8671 17.8822 15.6591 17.8832 15.4014V12.6008C17.8823 12.3431 17.6707 12.135 17.4108 12.136H15.0588V9.80016C15.0578 9.54246 14.8462 9.33437 14.5864 9.33536H11.7422C11.4767 9.35882 11.293 9.55995 11.2932 9.80016Z" fill="white"/>
<path d="M44.19 17.29V14.98H49.29C50.39 14.98 51.29 14.58 51.99 13.78C52.71 12.96 53.07 11.92 53.07 10.66C53.07 9.8 52.88 9.04 52.5 8.38C52.12 7.72 51.59 7.21 50.91 6.85C50.25 6.47 49.48 6.29 48.6 6.31H44.19V4L48.63 3.97C49.99 3.97 51.19 4.26 52.23 4.84C53.29 5.4 54.11 6.18 54.69 7.18C55.29 8.18 55.59 9.34 55.59 10.66C55.59 11.94 55.32 13.08 54.78 14.08C54.24 15.08 53.5 15.87 52.56 16.45C51.62 17.01 50.53 17.29 49.29 17.29H44.19ZM41.79 25V4H44.34V25H41.79ZM59.6759 16.87C59.6759 15.25 59.9859 13.94 60.6059 12.94C61.2259 11.92 62.0159 11.17 62.9759 10.69C63.9559 10.19 64.9859 9.94 66.0659 9.94V12.19C65.1859 12.19 64.3359 12.34 63.5159 12.64C62.7159 12.92 62.0559 13.39 61.5359 14.05C61.0159 14.71 60.7559 15.61 60.7559 16.75L59.6759 16.87ZM58.3559 25V10H60.7559V25H58.3559ZM75.1226 25.36C73.6626 25.36 72.3626 25.03 71.2226 24.37C70.1026 23.69 69.2226 22.76 68.5826 21.58C67.9426 20.4 67.6226 19.04 67.6226 17.5C67.6226 15.96 67.9326 14.6 68.5526 13.42C69.1926 12.24 70.0726 11.32 71.1926 10.66C72.3326 9.98 73.6226 9.64 75.0626 9.64C76.5426 9.64 77.8426 9.98 78.9626 10.66C80.1026 11.32 80.9826 12.24 81.6026 13.42C82.2426 14.6 82.5626 15.96 82.5626 17.5C82.5626 19.04 82.2426 20.4 81.6026 21.58C80.9826 22.76 80.1126 23.69 78.9926 24.37C77.8726 25.03 76.5826 25.36 75.1226 25.36ZM75.1226 23.14C76.1226 23.14 76.9926 22.9 77.7326 22.42C78.4726 21.94 79.0526 21.28 79.4726 20.44C79.9126 19.6 80.1326 18.62 80.1326 17.5C80.1326 16.38 79.9126 15.4 79.4726 14.56C79.0526 13.72 78.4626 13.06 77.7026 12.58C76.9426 12.1 76.0626 11.86 75.0626 11.86C74.0826 11.86 73.2126 12.1 72.4526 12.58C71.7126 13.06 71.1226 13.72 70.6826 14.56C70.2626 15.4 70.0526 16.38 70.0526 17.5C70.0526 18.6 70.2626 19.58 70.6826 20.44C71.1226 21.28 71.7226 21.94 72.4826 22.42C73.2626 22.9 74.1426 23.14 75.1226 23.14ZM101.015 25V4H103.535V25H101.015ZM86.5849 25V4H89.1349V25H86.5849ZM88.8349 15.34V13.03H101.555V15.34H88.8349ZM114.994 25.36C113.534 25.36 112.244 25.03 111.124 24.37C110.004 23.69 109.124 22.76 108.484 21.58C107.864 20.4 107.554 19.04 107.554 17.5C107.554 15.96 107.864 14.6 108.484 13.42C109.124 12.24 109.994 11.32 111.094 10.66C112.214 9.98 113.494 9.64 114.934 9.64C116.314 9.64 117.514 9.99 118.534 10.69C119.574 11.37 120.374 12.33 120.934 13.57C121.494 14.81 121.774 16.27 121.774 17.95H119.374C119.374 16.67 119.204 15.58 118.864 14.68C118.524 13.76 118.014 13.05 117.334 12.55C116.674 12.05 115.864 11.8 114.904 11.8C113.924 11.8 113.054 12.04 112.294 12.52C111.554 12.98 110.984 13.64 110.584 14.5C110.184 15.36 109.984 16.37 109.984 17.53C109.984 18.67 110.204 19.66 110.644 20.5C111.084 21.32 111.694 21.97 112.474 22.45C113.254 22.91 114.134 23.14 115.114 23.14C116.154 23.14 117.034 22.89 117.754 22.39C118.474 21.89 119.044 21.24 119.464 20.44L121.564 21.49C121.184 22.27 120.674 22.95 120.034 23.53C119.414 24.11 118.674 24.56 117.814 24.88C116.974 25.2 116.034 25.36 114.994 25.36ZM109.144 17.95L109.174 15.88H120.304V17.95H109.144ZM134.041 25L133.891 22.54V17.08C133.891 15.9 133.751 14.93 133.471 14.17C133.211 13.39 132.801 12.81 132.241 12.43C131.701 12.03 130.981 11.83 130.081 11.83C129.221 11.83 128.471 12 127.831 12.34C127.211 12.68 126.701 13.21 126.301 13.93L124.141 13.06C124.541 12.36 125.021 11.75 125.581 11.23C126.141 10.71 126.791 10.32 127.531 10.06C128.291 9.78 129.151 9.64 130.111 9.64C131.491 9.64 132.641 9.91 133.561 10.45C134.481 10.99 135.171 11.8 135.631 12.88C136.091 13.94 136.311 15.27 136.291 16.87L136.261 25H134.041ZM129.541 25.36C127.781 25.36 126.401 24.96 125.401 24.16C124.421 23.34 123.931 22.21 123.931 20.77C123.931 19.25 124.431 18.09 125.431 17.29C126.451 16.47 127.871 16.06 129.691 16.06H133.981V18.07H130.231C128.831 18.07 127.831 18.3 127.231 18.76C126.651 19.22 126.361 19.88 126.361 20.74C126.361 21.52 126.651 22.14 127.231 22.6C127.811 23.04 128.621 23.26 129.661 23.26C130.521 23.26 131.271 23.06 131.911 22.66C132.551 22.26 133.041 21.72 133.381 21.04C133.721 20.34 133.891 19.55 133.891 18.67H135.361C135.361 20.71 134.861 22.34 133.861 23.56C132.861 24.76 131.421 25.36 129.541 25.36ZM140.094 25V4H142.494V25H140.094ZM152.326 25.36C150.866 25.36 149.736 24.98 148.936 24.22C148.136 23.46 147.736 22.39 147.736 21.01V5.32H150.136V20.77C150.136 21.53 150.336 22.12 150.736 22.54C151.156 22.94 151.736 23.14 152.476 23.14C152.716 23.14 152.946 23.11 153.166 23.05C153.406 22.97 153.716 22.79 154.096 22.51L155.026 24.46C154.506 24.8 154.036 25.03 153.616 25.15C153.196 25.29 152.766 25.36 152.326 25.36ZM145.126 12.13V10H154.636V12.13H145.126ZM158.024 25V3.61H160.424V25H158.024ZM168.584 25V17.32L170.984 16.42V25H168.584ZM168.584 17.32C168.584 15.84 168.404 14.71 168.044 13.93C167.704 13.15 167.234 12.62 166.634 12.34C166.034 12.04 165.354 11.89 164.594 11.89C163.274 11.89 162.244 12.36 161.504 13.3C160.784 14.22 160.424 15.53 160.424 17.23H159.254C159.254 15.65 159.484 14.29 159.944 13.15C160.404 12.01 161.074 11.14 161.954 10.54C162.834 9.94 163.894 9.64 165.134 9.64C166.934 9.64 168.364 10.2 169.424 11.32C170.484 12.44 171.004 14.14 170.984 16.42L168.584 17.32Z" fill="white"/>
</svg>

<svg version="1.2" xmlns="http://www.w3.org/2000/svg" viewBox="0 0 173 28" width="173" height="28">
	<title>logo_white — копия</title>
	<style>
		tspan { white-space:pre } 
		.s0 { fill: #ffffff } 
		.t1 { font-size: 26px;fill: #ffffff;font-weight: 700;font-family: "Montserrat-Bold", "Montserrat" } 
		.t2 { font-size: 9px;fill: #fdfdfd;font-weight: 500;font-family: "Montserrat-Medium", "Montserrat" } 
	</style>
	<path class="s0" d="m13.2 0q-0.1 0-0.2 0.1c0 0-5.6 2.7-12.6 3.6-0.2 0.1-0.4 0.3-0.4 0.5v9.8c0 6 3.3 9.6 6.6 11.5 3.2 2 6.5 2.5 6.5 2.5q0.1 0 0.1 0c0 0 3.3-0.5 6.6-2.5 3.2-1.9 6.6-5.5 6.6-11.5v-9.8c0-0.2-0.2-0.4-0.5-0.5-6.9-0.9-12.5-3.6-12.5-3.6q-0.1-0.1-0.2-0.1zm0 5.6c4.6 0 8.4 3.8 8.4 8.4 0 4.6-3.8 8.4-8.4 8.4-4.7 0-8.5-3.8-8.5-8.4 0-4.6 3.8-8.4 8.5-8.4zm-1.9 4.2v2.3h-2.4c-0.2 0-0.4 0.2-0.4 0.5v2.8c0 0.3 0.2 0.5 0.4 0.5h2.4v2.3c0 0.3 0.2 0.5 0.5 0.5h2.8c0.2 0 0.5-0.2 0.5-0.5v-2.3h2.3c0.3 0 0.5-0.2 0.5-0.5v-2.8c0-0.3-0.2-0.5-0.5-0.5h-2.3v-2.3c0-0.3-0.3-0.5-0.5-0.5h-2.9c-0.2 0.1-0.4 0.3-0.4 0.5z"/>
	<text id="" style="transform: matrix(1,0,0,1,87,65)" >
	</text>
	<text id="АкАю" style="transform: matrix(1,0,0,1,33,0)" >
		<tspan x="0" y="19.3" class="t1">А</tspan><tspan  y="19.3" class="t1">к</tspan><tspan  y="19.3" class="t1">А</tspan><tspan  y="19.3" class="t1">ю</tspan><tspan  y="19.3" class="t1">
</tspan>
	</text>
	<text id="многопрофильная-клиника " style="transform: matrix(1,0,0,1,33,20)" >
		<tspan x="0" y="6.7" class="t2">м</tspan><tspan  y="6.7" class="t2">н</tspan><tspan  y="6.7" class="t2">о</tspan><tspan  y="6.7" class="t2">г</tspan><tspan  y="6.7" class="t2">о</tspan><tspan  y="6.7" class="t2">п</tspan><tspan  y="6.7" class="t2">р</tspan><tspan  y="6.7" class="t2">о</tspan><tspan  y="6.7" class="t2">ф</tspan><tspan  y="6.7" class="t2">и</tspan><tspan  y="6.7" class="t2">л</tspan><tspan  y="6.7" class="t2">ь</tspan><tspan  y="6.7" class="t2">н</tspan><tspan  y="6.7" class="t2">а</tspan><tspan  y="6.7" class="t2">я</tspan><tspan  y="6.7" class="t2">-</tspan><tspan  y="6.7" class="t2">к</tspan><tspan  y="6.7" class="t2">л</tspan><tspan  y="6.7" class="t2">и</tspan><tspan  y="6.7" class="t2">н</tspan><tspan  y="6.7" class="t2">и</tspan><tspan  y="6.7" class="t2">к</tspan><tspan  y="6.7" class="t2">а</tspan><tspan  y="6.7" class="t2"> 
</tspan>
	</text>
</svg>
